packages/react-icons/icons/info-circled.svg

<svg width="24" height="25" viewBox="0 0 24 25" xmlns="http://www.w3.org/2000/svg"><path fill-rule="evenodd" clip-rule="evenodd" d="M12.1086 4.41133C7.58027 4.41133 3.90937 8.08223 3.90937 12.6105C3.90937 17.1388 7.58027 20.8097 12.1086 20.8097C16.6368 20.8097 20.3077 17.1388 20.3077 12.6105C20.3077 8.08223 16.6368 4.41133 12.1086 4.41133ZM2.10938 12.6105C2.10938 7.08811 6.58616 2.61133 12.1086 2.61133C17.631 2.61133 22.1077 7.08811 22.1077 12.6105C22.1077 18.1329 17.631 22.6097 12.1086 22.6097C6.58616 22.6097 2.10938 18.1329 2.10938 12.6105ZM10.2542 12.1205H11.2085V16.3504H10.2542C9.75719 16.3504 9.35424 16.7533 9.35424 17.2504C9.35424 17.7474 9.75719 18.1504 10.2542 18.1504H13.9627C14.4598 18.1504 14.8627 17.7474 14.8627 17.2504C14.8627 16.7533 14.4598 16.3504 13.9627 16.3504H13.0085V11.3593C13.0085 11.336 13.0076 11.3129 13.0058 11.29C13.0076 11.267 13.0085 11.2439 13.0085 11.2205C13.0085 10.7234 12.6055 10.3205 12.1085 10.3205H10.2542C9.75719 10.3205 9.35424 10.7234 9.35424 11.2205C9.35424 11.7175 9.75719 12.1205 10.2542 12.1205ZM11.9098 9.27395C12.524 9.27395 13.0219 8.77603 13.0219 8.16182C13.0219 7.54762 12.524 7.0497 11.9098 7.0497C11.2956 7.0497 10.7977 7.54762 10.7977 8.16182C10.7977 8.77603 11.2956 9.27395 11.9098 9.27395Z"/></svg>

<svg xmlns="http://www.w3.org/2000/svg" width="24" height="25"><path fill-rule="evenodd" d="M12.109 4.411a8.2 8.2 0 1 0 0 16.399 8.2 8.2 0 0 0 0-16.399Zm-10 8.2c0-5.523 4.477-10 10-10 5.522 0 9.999 4.477 9.999 10 0 5.522-4.477 9.999-10 9.999-5.522 0-9.999-4.477-9.999-10Zm8.145-.49h.955v4.23h-.955a.9.9 0 0 0 0 1.8h3.709a.9.9 0 0 0 0-1.8h-.954v-4.992l-.003-.069a.9.9 0 0 0-.897-.97h-1.855a.9.9 0 0 0 0 1.8Zm1.656-2.847a1.112 1.112 0 1 0 0-2.224 1.112 1.112 0 0 0 0 2.224Z" clip-rule="evenodd"/></svg>
